assets/icon-battlenet.svg

<svg width="24" height="24" viewBox="0 0 24 24" fill="none" xmlns="http://www.w3.org/2000/svg">
<path d="M21.0403 10.5835C22.3003 10.5942 22.7114 10.2367 22.8662 10.002C23.4535 9.23917 22.5352 7.77216 20.3837 6.65723C21.2165 5.08352 21.7985 3.66986 22.0868 2.65628C22.2469 2.10149 22.1402 1.76541 22.1081 1.70673C22.028 2.19751 21.366 3.97926 19.8445 6.39583C18.6699 5.86771 17.1911 5.45161 15.4453 5.2809C15.0235 4.48605 13.8062 2.2882 12.605 1.10925C11.8148 0.335734 11.1849 0.047666 10.6883 0.0103239C10.037 -0.0643605 9.62592 0.282388 9.40169 0.52778C8.59553 1.39732 8.25918 2.82166 8.22715 4.47005C7.88546 3.88857 7.42098 3.31777 6.89244 3.25376H6.88176C5.91009 3.08839 5.08257 4.62475 5.19469 7.06266C3.3955 7.12667 1.86325 7.33472 0.832858 7.59078C0.36838 7.70814 0.0694049 7.9322 0 8.04422C0.0480495 8.02822 1.05175 7.61212 5.2374 7.61212C5.48298 10.098 6.63083 12.3866 6.45999 11.9812C6.00085 12.7013 4.66614 14.9045 4.23904 16.5636C3.96142 17.6358 4.03616 18.3293 4.24437 18.7721C4.50598 19.3696 5.01317 19.5563 5.3335 19.6256C6.50804 19.8924 7.93351 19.4549 9.40169 18.6334C9.04933 19.2362 8.75035 19.9724 8.97458 20.4792C9.31627 21.4021 11.0621 21.354 13.1229 20.0364C14.0678 21.5461 15.0021 22.7517 15.7389 23.5092C15.8617 23.6372 15.9952 23.7493 16.15 23.84C16.3902 23.9893 16.5504 24 16.5504 24C16.166 23.6853 14.9541 22.2182 13.614 19.695C14.6551 18.9428 15.7549 17.8706 16.78 16.4462C22.5406 16.6596 23.5016 15.2833 23.7258 14.9632C24.4198 14.0456 23.8913 12.2852 21.0403 10.5835ZM17.3886 15.566C18.5044 13.8003 18.8141 12.3866 18.7713 11.2343C20.0794 12.0558 20.987 12.9947 21.0724 13.9923C21.1258 14.6004 20.6933 15.358 17.3886 15.566ZM10.1651 18.18C10.6243 17.8866 11.0834 17.5665 11.5372 17.2197C11.8522 17.8439 12.1779 18.4414 12.5036 19.0122C10.5976 20.0364 9.27356 19.6096 10.1651 18.18ZM20.2555 10.1461C19.775 9.89533 19.2625 9.66061 18.734 9.44189C19.1077 8.87642 19.4654 8.30029 19.8017 7.71348C21.6383 8.84441 21.9586 10.2047 20.2555 10.1461ZM13.0908 18.6654C12.8346 18.1319 12.573 17.5611 12.3167 16.9583C14.3455 17.017 15.2477 16.0781 15.2851 16.0034C15.2851 16.0088 14.1105 16.7343 12.3487 16.5796C13.7849 15.3793 15.1196 14.0616 16.3422 12.6426C16.7533 12.1625 17.143 11.6771 17.5114 11.1863C17.4954 11.1703 17.4366 11.0476 16.7372 10.6262C14.3134 13.4535 11.9376 15.2193 10.5068 16.0621C9.5405 15.5393 8.59019 14.5738 7.8908 13.1814C6.95116 11.309 6.48135 9.31919 6.41194 7.74015C6.98854 7.78283 7.59716 7.84151 8.23248 7.92153C7.18607 9.6446 7.55979 10.8769 7.6025 10.9356C7.6025 10.9302 7.55979 9.56992 8.54748 8.14025C8.96924 10.5995 9.67397 13.0054 10.6456 15.3046C10.6883 15.2886 10.7311 15.3473 11.5212 14.9152C10.2879 11.421 9.93557 8.43899 9.9249 6.78526C10.8645 6.20379 12.1832 5.85704 13.7528 5.94773C15.8457 6.07042 17.805 6.66256 19.2091 7.38807C18.8728 7.87885 18.5097 8.38564 18.1147 8.90843C17.143 7.13734 15.8991 6.84928 15.8243 6.85994C15.8296 6.85994 17.0416 7.52143 17.773 9.0738C16.0112 8.42831 14.2013 7.9322 12.3594 7.58545C11.7454 7.47342 11.1315 7.3774 10.5122 7.30272C10.5068 7.32405 10.4267 7.38807 10.4107 8.25761C14.0625 8.9351 16.8227 10.1301 18.2588 10.9409C18.2962 12.0452 17.9331 13.3628 17.0683 14.6698C15.9151 16.4089 14.4202 17.8119 13.0908 18.6654ZM14.3775 5.21156C12.2847 5.13154 10.9233 5.5583 9.93557 6.18245C10.0317 3.72854 10.9339 2.60294 11.7294 2.65095C12.5196 2.44823 14.3027 5.09419 14.3775 5.21156ZM8.24316 5.35559C8.26452 5.92106 8.31791 6.50786 8.39265 7.10534C7.70928 7.06799 7.04192 7.04666 6.40126 7.04666C6.39593 7.19602 6.39593 4.65676 7.55979 4.72077H7.56513C7.83741 4.76878 8.06698 5.04085 8.24316 5.35559ZM6.92981 12.9521C7.90148 14.8138 8.96391 15.7901 9.98896 16.3449C7.7947 17.5078 6.35321 17.2837 6.00619 16.5582C5.99551 16.5422 5.48298 15.8327 6.92981 12.9521Z" fill="#61CDFF"/>
</svg>

<?xml version="1.0" encoding="utf-8"?>
<!-- Generator: Adobe Illustrator 27.5.0, SVG Export Plug-In . SVG Version: 6.00 Build 0)  -->
<svg version="1.1" id="Camada_1" xmlns="http://www.w3.org/2000/svg" xmlns:xlink="http://www.w3.org/1999/xlink" x="0px" y="0px"
	 viewBox="0 0 24 24" style="enable-background:new 0 0 24 24;" xml:space="preserve">
<style type="text/css">
</style>
<path class="st0" fill="#fff" d="M21,10.6c1.3,0,1.7-0.3,1.8-0.6c0.6-0.8-0.3-2.2-2.5-3.3c0.8-1.6,1.4-3,1.7-4c0.2-0.6,0.1-0.9,0-0.9
	C22,2.2,21.4,4,19.8,6.4c-1.2-0.5-2.7-0.9-4.4-1.1c-0.4-0.8-1.6-3-2.8-4.2C11.8,0.3,11.2,0,10.7,0C10-0.1,9.6,0.3,9.4,0.5
	C8.6,1.4,8.3,2.8,8.2,4.5C7.9,3.9,7.4,3.3,6.9,3.3h0c-1-0.2-1.8,1.4-1.7,3.8C3.4,7.1,1.9,7.3,0.8,7.6C0.4,7.7,0.1,7.9,0,8
	c0,0,1.1-0.4,5.2-0.4c0.2,2.5,1.4,4.8,1.2,4.4c-0.5,0.7-1.8,2.9-2.2,4.6c-0.3,1.1-0.2,1.8,0,2.2c0.3,0.6,0.8,0.8,1.1,0.9
	c1.2,0.3,2.6-0.2,4.1-1C9,19.2,8.8,20,9,20.5c0.3,0.9,2.1,0.9,4.1-0.4c0.9,1.5,1.9,2.7,2.6,3.5c0.1,0.1,0.3,0.2,0.4,0.3
	c0.2,0.1,0.4,0.2,0.4,0.2c-0.4-0.3-1.6-1.8-2.9-4.3c1-0.8,2.1-1.8,3.2-3.2c5.8,0.2,6.7-1.2,6.9-1.5C24.4,14,23.9,12.3,21,10.6z
	 M17.4,15.6c1.1-1.8,1.4-3.2,1.4-4.3c1.3,0.8,2.2,1.8,2.3,2.8C21.1,14.6,20.7,15.4,17.4,15.6z M10.2,18.2c0.5-0.3,0.9-0.6,1.4-1
	c0.3,0.6,0.6,1.2,1,1.8C10.6,20,9.3,19.6,10.2,18.2z M20.3,10.1c-0.5-0.3-1-0.5-1.5-0.7c0.4-0.6,0.7-1.1,1.1-1.7
	C21.6,8.8,22,10.2,20.3,10.1z M13.1,18.7c-0.3-0.5-0.5-1.1-0.8-1.7c2,0.1,2.9-0.9,3-1c0,0-1.2,0.7-2.9,0.6c1.4-1.2,2.8-2.5,4-3.9
	c0.4-0.5,0.8-1,1.2-1.5c0,0-0.1-0.1-0.8-0.6c-2.4,2.8-4.8,4.6-6.2,5.4c-1-0.5-1.9-1.5-2.6-2.9C7,11.3,6.5,9.3,6.4,7.7
	c0.6,0,1.2,0.1,1.8,0.2c-1,1.7-0.7,3-0.6,3c0,0,0-1.4,0.9-2.8c0.4,2.5,1.1,4.9,2.1,7.2c0,0,0.1,0,0.9-0.4c-1.2-3.5-1.6-6.5-1.6-8.1
	c0.9-0.6,2.3-0.9,3.8-0.8c2.1,0.1,4.1,0.7,5.5,1.4c-0.3,0.5-0.7,1-1.1,1.5c-1-1.8-2.2-2.1-2.3-2c0,0,1.2,0.7,1.9,2.2
	c-1.8-0.6-3.6-1.1-5.4-1.5c-0.6-0.1-1.2-0.2-1.8-0.3c0,0-0.1,0.1-0.1,1c3.7,0.7,6.4,1.9,7.8,2.7c0,1.1-0.3,2.4-1.2,3.7
	C15.9,16.4,14.4,17.8,13.1,18.7z M14.4,5.2c-2.1-0.1-3.5,0.3-4.4,1c0.1-2.5,1-3.6,1.8-3.5C12.5,2.4,14.3,5.1,14.4,5.2z M8.2,5.4
	c0,0.6,0.1,1.2,0.1,1.7C7.7,7.1,7,7,6.4,7c0,0.1,0-2.4,1.2-2.3h0C7.8,4.8,8.1,5,8.2,5.4z M6.9,13c1,1.9,2,2.8,3.1,3.4
	c-2.2,1.2-3.6,0.9-4,0.2C6,16.5,5.5,15.8,6.9,13z"/>
</svg>
